view/frontend/web/images/visa.svg

<svg height="22" viewBox="0 0 35 22" width="35" xmlns="http://www.w3.org/2000/svg"><g fill="none" transform="translate(3.66811 6.7733)"><g fill="#00579f"><path d="m10.774088 0h2.202183l-1.377358 8.4533898h-2.2023028z"/><path d="m19.240678.34838704c-.41191-.16557352-1.065232-.34838704-1.873064-.34838704-2.062289 0-3.514536 1.1142368-3.523443 2.70726-.01713 1.175329 1.039766 1.8281352 1.83024 2.2200272.807946.4004542 1.08259.6618313 1.08259 1.0187805-.0082.5482091-.652866.8009083-1.254115.8009083-.833754 0-1.280494-.1302835-1.959397-.4352813l-.274987-.1307464-.292231 1.8369288c.489792.2260871 1.392179.4267192 2.329054.4355127 2.191218 0 3.61777-1.0969968 3.634671-2.7946171.0083-.931539-.549745-1.6453217-1.752928-2.2285894-.730406-.3744206-1.177717-.6268883-1.177717-1.0099868.0086-.3482713.378336-.7049891 1.20284-.7049891.678903-.017471 1.177717.1478707 1.555596.3133285l.188882.086894z"/><path d="m22.073042 5.4587314c.174581-.4856429.846357-2.3652232.846357-2.3652232-.0088.018049.174233-.4946075.278912-.8093251l.14815.7284046s.401443 2.0234921.488617 2.4461437c-.331309 0-1.343321 0-1.762036 0zm2.61674-5.4587314h-1.639737c-.505658 0-.889829.15275698-1.107997.70139122l-3.148828 7.75199858h2.224339s.366202-1.0433613.444914-1.2680742h2.721766c.06086.2967884.252945 1.2680742.252945 1.2680742h1.962816z"/><path d="m7.563072.44491525-2.1125488 5.46681065-.230848-1.1087332c-.3905662-1.2793337-1.6154646-2.6693026-2.9823871-3.360433l1.9350187 7.0108301h2.2811138l3.3906472-8.00847455z"/></g><path d="m3.5948598 0h-3.55845524l-.03640456.16535772c2.7758176.67913538 4.6141876 2.31616528 5.3694915 4.28379478l-.7735667-3.76122273c-.1273555-.52268777-.5187348-.67068813-1.001065-.68792977z" fill="#faa61a"/></g></svg>

<?xml version="1.0" encoding="UTF-8"?>
<svg width="33px" height="22px" viewBox="0 0 33 22" version="1.1" xmlns="http://www.w3.org/2000/svg" xmlns:xlink="http://www.w3.org/1999/xlink">
    <title>Visa</title>
    <g id="Page-1" stroke="none" stroke-width="1" fill="none" fill-rule="evenodd">
        <g id="Visa">
            <rect id="Rectangle" stroke="#909192" stroke-width="0.5" fill="#FFFFFF" x="0.25" y="0.25" width="32.5" height="21.5" rx="2"></rect>
            <g id="Visa_Inc._logo" transform="translate(3.08, 6.7733)" fill-rule="nonzero">
                <polygon id="polygon9" fill="#00579F" points="11.5989134 8.45338983 9.39661017 8.45338983 10.7740884 0 12.9762712 0"></polygon>
                <path d="M19.240678,0.348387035 C18.8287683,0.182813522 18.1754456,0 17.3676139,0 C15.305325,0 13.853078,1.11423685 13.8441706,2.70726 C13.827041,3.88258896 14.883937,4.53539522 15.6744107,4.92728724 C16.4823565,5.32774142 16.757001,5.58911847 16.757001,5.94606766 C16.7487788,6.49427682 16.1041351,6.74697602 15.5028863,6.74697602 C14.6691319,6.74697602 14.2223921,6.61669246 13.5434891,6.31169471 L13.2685021,6.18094833 L12.9762712,8.01787711 C13.4660634,8.24396421 14.3684504,8.44459627 15.305325,8.45338983 C17.4965427,8.45338983 18.9230953,7.35639299 18.9399965,5.65877274 C18.9483329,4.72723371 18.3902507,4.01345104 17.187068,3.43018334 C16.4566621,3.05576274 16.0093513,2.80329495 16.0093513,2.42019648 C16.0179161,2.07192515 16.387687,1.71520738 17.2121914,1.71520738 C17.8910943,1.69773596 18.3899081,1.86307806 18.767787,2.02853587 L18.9566693,2.11543014 L19.240678,0.348387035 L19.240678,0.348387035 L19.240678,0.348387035 Z" id="path11" fill="#00579F"></path>
                <path d="M22.073042,5.45873139 C22.2476227,4.97308849 22.919399,3.09350823 22.919399,3.09350823 C22.9105888,3.11155698 23.0936319,2.59890071 23.1983107,2.28418308 L23.3464609,3.01258766 C23.3464609,3.01258766 23.7479037,5.03607983 23.8350782,5.45873139 C23.503769,5.45873139 22.4917574,5.45873139 22.073042,5.45873139 L22.073042,5.45873139 Z M24.6897816,0 L23.0500447,0 C22.5443867,0 22.1602164,0.152756984 21.9420485,0.701391224 L18.7932203,8.45338983 L21.0175591,8.45338983 C21.0175591,8.45338983 21.3837613,7.41002855 21.4624733,7.18531562 C21.7064921,7.18531562 23.8703189,7.18531562 24.1842395,7.18531562 C24.2450993,7.48210403 24.4371845,8.45338983 24.4371845,8.45338983 L26.4,8.45338983 L24.6897816,0 L24.6897816,0 L24.6897816,0 Z" id="path13" fill="#00579F"></path>
                <path d="M7.56307195,0.444915254 L5.45052322,5.91172587 L5.21967517,4.8029927 C4.82910904,3.52365904 3.60421061,2.1336901 2.23728814,1.44255973 L4.1723068,8.45338983 L6.45342061,8.45338983 L9.8440678,0.444915254 L7.56307195,0.444915254 L7.56307195,0.444915254 L7.56307195,0.444915254 Z" id="path15" fill="#00579F"></path>
                <path d="M3.59485982,0 L0.0364045623,0 L0,0.16535772 C2.77581764,0.844493101 4.61418757,2.48152296 5.36949153,4.44915254 L4.59592481,0.687929774 C4.46856932,0.165242004 4.07719004,0.0172416377 3.59485982,0 L3.59485982,0 Z" id="path17" fill="#FAA61A"></path>
            </g>
        </g>
    </g>
</svg>
